X:1
T:Somewhere
C:Leonard Bernstein
L:1/4
M:C
I:linebreak $
K:F
"C7" C2 B2 |"F" A3/2 F/"Bb" D2 |"Gm" z d"C7" c B |"F" A3/2 F/"Bb" D2 |$"C7" E3/2 F/"C/Bb" (3G A B |
"Am" c3/2 A/"Dm" F2 ||[K:Bb]"Bb" d3/2 B/"Eb" (3G A B |"Cm" e3/2 c/"Fm" _A2 ||$[K:Db]"Db" e/f/ f3 |
"Bbm" e/f/ f3 ||[K:Eb]"Fm" (3g f e"Bb7" (3d e f |"Eb" f B"Eb6" z2 ||$
[K:Ab]"Db" (3e d c"Gø" (3B c d |"Cm" e A"Fm" z2 ||[K:F]"G7" d G z2 | z4 |]

